!!!OTL: BUKO VON HALBERSTADT
!!!ARE: Europa, Mitteleuropa, Deutschland
!!!SCT: E1817
!!!YEM: Copyright 1995, estate of Helmut Schaffrath.
**kern
*ICvox
*Ivox
*M2/4
*k[b-]
*F:
=1
{4cc
8a
8g
=2
8f
8f
4c}
=3
{8cc
8cc
8a
8g
=4
8f
8f
8c
8r}
=5
{8f
8f
8g
8f
=6
4b-
8g}
{8cc
=7
16b-
16a
16g
16f
8g
8c
=8
4f
8f
8r}
==
!!!AGN: Kinder - Lied, Sage
!!!ONB: ESAC (Essen Associative Code) Database: ERK3
!!!AMT: simple duple
!!!AIN: vox
!!!EED: Helmut Schaffrath
!!!EEV: 1.0
*-
